icon-themes/breeze_svg/cmd/32/label.svg

<svg viewBox="0 0 32 32" xmlns="http://www.w3.org/2000/svg"><path d="m13 4-9 3 3 9 15 7.5 6-12zm-9 3v9l12 12 4.058594-4.058594-14.558594-7.941406zm5.25 0c1.2465 0 2.25 1.0035 2.25 2.25s-1.0035 2.25-2.25 2.25-2.25-1.0035-2.25-2.25 1.0035-2.25 2.25-2.25z" fill="#4d4d4d"/></svg>

<svg xmlns="http://www.w3.org/2000/svg" viewBox="0 0 32 32">
 <path 
     style="fill:#4d4d4d" 
     d="M 13 4 L 4 7 L 7 16 L 22 23.5 L 28 11.5 L 13 4 z M 4 7 L 4 16 L 16 28 L 20.058594 23.941406 L 5.5 16 L 4 7 z M 9.25 7 C 10.4965 7 11.5 8.0035 11.5 9.25 C 11.5 10.4965 10.4965 11.5 9.25 11.5 C 8.0035 11.5 7 10.4965 7 9.25 C 7 8.0035 8.0035 7 9.25 7 z "
     />
</svg>
